X: 42992
T: Willie's Auld Trews
R: strathspey
M: 4/4
K: Eminor
E|A/A/A Ac B2GB|c2 BA BGGB|A/A/A Ac B2EB|c2 BA GEE:|
|:B|egec dfdB|egec dBGG|1 egec dfdB|
c2 BA BGG:|2 afge fdec|c2BA GEE||

